ids-wordpress/site-IdS/assets/images/projetos/icones-ferramentasetec/Figma.svg

<svg width="36" height="35" viewBox="0 0 36 35" fill="none" xmlns="http://www.w3.org/2000/svg">
<g clip-path="url(#clip0_694_1572)">
<path d="M16.1096 0.0839012C27.767 -0.869999 37.1385 8.0411 35.6405 19.8621C33.9014 33.5782 16.9582 39.6809 6.5668 30.7102C-4.91425 20.7957 0.815496 1.33463 16.1096 0.0839012ZM16.7439 1.22427C3.73047 2.17436 -2.8593 17.06 5.0535 27.4083C12.8991 37.6678 29.6976 34.9799 33.758 22.6693C37.4975 11.3328 28.537 0.362968 16.7439 1.22427Z" fill="#F75705"/>
<path d="M19.1783 24.8206C18.8117 27.7114 15.7432 29.3059 13.1327 28.0768C10.7391 26.9504 10.2634 23.7538 11.9556 21.7826C12.1725 21.5301 12.841 21.0836 12.841 20.8933C10.1733 19.2532 10.3205 15.5708 12.9665 13.9877C9.43888 11.9746 10.6389 6.73579 14.8008 6.37808C16.3876 6.24108 21.7191 6.19415 23.0523 6.62924C25.6603 7.48293 26.7347 11.1501 24.8066 13.2127L23.8679 14.0486C28.7706 17.367 24.0201 23.698 19.1783 20.9568C19.0667 22.1732 19.328 23.6371 19.1783 24.8218V24.8206ZM18.0367 13.3522V7.58567C17.939 7.44487 17.92 7.45375 17.7741 7.44995C16.8862 7.42965 15.4299 7.43219 14.5839 7.55523C12.0393 7.92309 11.0346 11.1831 13.0908 12.7839C13.2735 12.926 14.0054 13.3509 14.1716 13.3509H18.0379L18.0367 13.3522ZM19.1783 13.3522H22.5373C22.7022 13.3522 23.4341 12.9273 23.618 12.7852C25.092 11.6372 25.0032 9.17509 23.481 8.10195C22.0895 7.12141 20.6802 7.71379 19.1796 7.39667V13.3522H19.1783ZM18.0367 14.4926H14.6777C13.6566 14.4926 12.2308 15.9539 12.09 16.975C11.6384 20.2477 14.8249 20.7449 17.3415 20.4519C17.6269 20.4189 17.8426 20.358 18.0367 20.1323V14.4926ZM19.1783 14.4926V19.2443C19.1783 19.4929 19.8899 20.0638 20.1424 20.1805C22.7833 21.4033 25.8163 18.9855 24.4679 16.1099C24.1685 15.4731 22.9609 14.4913 22.2836 14.4913H19.1783V14.4926ZM18.0367 21.4629H14.424C13.6033 21.4629 12.4211 22.7441 12.1674 23.5153C10.9167 27.3106 16.3559 28.8252 17.7208 25.7719C17.7741 25.6527 18.0367 24.8713 18.0367 24.8206V21.4629Z" fill="#F75705"/>
</g>
<defs>
<clipPath id="clip0_694_1572">
<rect width="35.2968" height="34.9226" fill="white" transform="translate(0.502411 0.0141602)"/>
</clipPath>
</defs>
</svg>

<svg xmlns="http://www.w3.org/2000/svg" width="36" height="35" fill="none"><g fill="#F75705" clip-path="url(#a)"><path d="M16.11.084C27.767-.87 37.139 8.04 35.64 19.862 33.902 33.578 16.959 39.681 6.568 30.71-4.914 20.796.815 1.335 16.11.084Zm.634 1.14C3.73 2.174-2.86 17.06 5.054 27.408c7.845 10.26 24.644 7.572 28.704-4.739C37.498 11.333 28.537.363 16.744 1.224Z"/><path d="M19.178 24.82c-.366 2.891-3.435 4.486-6.045 3.257-2.394-1.127-2.87-4.323-1.177-6.294.216-.253.885-.7.885-.89-2.668-1.64-2.52-5.322.126-6.905-3.528-2.013-2.328-7.252 1.834-7.61 1.587-.137 6.918-.184 8.251.251 2.608.854 3.683 4.521 1.755 6.584l-.94.836c4.904 3.318.153 9.649-4.689 6.908-.111 1.216.15 2.68 0 3.865v-.001Zm-1.141-11.468V7.586c-.098-.141-.117-.132-.263-.136-.888-.02-2.344-.018-3.19.105-2.545.368-3.55 3.628-1.493 5.229.183.142.914.567 1.08.567h3.867l-.001.001Zm1.141 0h3.36c.164 0 .896-.425 1.08-.567 1.474-1.148 1.385-3.61-.137-4.683-1.392-.98-2.8-.388-4.301-.705v5.955h-.002Zm-1.141 1.14h-3.36c-1.02 0-2.446 1.462-2.587 2.483-.452 3.273 2.735 3.77 5.252 3.477.285-.033.5-.094.695-.32v-5.64Zm1.141 0v4.752c0 .249.712.82.964.936 2.641 1.223 5.674-1.195 4.326-4.07-.3-.637-1.507-1.619-2.184-1.619h-3.106v.002Zm-1.141 6.97h-3.613c-.82 0-2.003 1.282-2.257 2.053-1.25 3.796 4.189 5.31 5.554 2.257.053-.12.316-.9.316-.951v-3.358Z"/></g><defs><clipPath id="a"><path fill="#fff" d="M.502.014H35.8v34.923H.502z"/></clipPath></defs></svg>
